svgs/duotone/rectangle-ad.svg

<svg xmlns="http://www.w3.org/2000/svg" viewBox="0 0 576 512"><!-- Font Awesome Pro 6.0.0-alpha2 by @fontawesome - https://fontawesome.com License - https://fontawesome.com/license (Commercial License) --><defs><style>.fa-secondary{opacity:.4}</style></defs><path d="M186.836 280H229.164L208 237.672L186.836 280ZM512 32H64C28.654 32 0 60.652 0 96V416C0 451.346 28.654 480 64 480H512C547.346 480 576 451.346 576 416V96C576 60.652 547.346 32 512 32ZM290.719 349.469C287.281 351.188 283.625 352 280.031 352C271.219 352 262.75 347.141 258.531 338.734L249.164 320H166.836L157.469 338.734C151.562 350.594 137.156 355.438 125.281 349.469C113.406 343.531 108.594 329.125 114.531 317.266L186.531 173.266C194.656 157.016 221.344 157.016 229.469 173.266L301.469 317.266C307.406 329.125 302.594 343.531 290.719 349.469ZM464 328C464 341.25 453.25 352 440 352C433.293 352 427.26 349.219 422.904 344.779C413.508 349.273 403.111 352 392 352C352.236 352 320 319.764 320 280S352.236 208 392 208C400.461 208 408.459 209.727 416 212.408V184C416 170.75 426.75 160 440 160S464 170.75 464 184V328ZM392 256C378.768 256 368 266.766 368 280S378.768 304 392 304C405.234 304 416 293.234 416 280S405.234 256 392 256Z" class="fa-secondary"/><path d="M440.012 160C426.762 160 416.012 170.75 416.012 184V212.408C408.471 209.727 400.473 208 392.012 208C352.248 208 320.012 240.236 320.012 280S352.248 352 392.012 352C403.123 352 413.52 349.273 422.916 344.779C427.272 349.219 433.305 352 440.012 352C453.262 352 464.012 341.25 464.012 328V184C464.012 170.75 453.262 160 440.012 160ZM392.012 304C378.78 304 368.012 293.234 368.012 280S378.78 256 392.012 256C405.246 256 416.012 266.766 416.012 280S405.246 304 392.012 304ZM229.481 173.266C221.356 157.016 194.668 157.016 186.543 173.266L114.543 317.266C108.606 329.125 113.418 343.531 125.293 349.469C137.168 355.438 151.575 350.594 157.481 338.734L166.848 320H249.176L258.543 338.734C262.762 347.141 271.231 352 280.043 352C283.637 352 287.293 351.188 290.731 349.469C302.606 343.531 307.418 329.125 301.481 317.266L229.481 173.266ZM186.848 280L208.012 237.672L229.176 280H186.848Z" class="fa-primary"/></svg>

<svg xmlns="http://www.w3.org/2000/svg" viewBox="0 0 576 512"><!--! Font Awesome Pro 6.0.0-alpha3 by @fontawesome - https://fontawesome.com License - https://fontawesome.com/license (Commercial License) --><defs><style>.fa-secondary{opacity:.4}</style></defs><path class="fa-primary" d="M440 160C426.8 160 416 170.8 416 184v28.41C408.5 209.7 400.5 208 392 208C352.2 208 320 240.2 320 280S352.2 352 392 352c11.11 0 21.51-2.727 30.9-7.221c4.355 4.439 10.39 7.221 17.1 7.221c13.25 0 24-10.75 24-24v-144C464 170.8 453.3 160 440 160zM392 304c-13.23 0-24-10.77-24-24S378.8 256 392 256C405.2 256 416 266.8 416 280S405.2 304 392 304zM229.5 173.3c-8.125-16.25-34.81-16.25-42.94 0l-72 144c-5.938 11.86-1.125 26.27 10.75 32.2c11.88 5.969 26.28 1.125 32.19-10.73L166.8 320H249.2l9.367 18.73C262.8 347.1 271.2 352 280 352c3.594 0 7.25-.8125 10.69-2.531c11.88-5.938 16.69-20.34 10.75-32.2L229.5 173.3zM186.8 280L208 237.7L229.2 280H186.8z"/><path class="fa-secondary" d="M186.8 280H229.2L208 237.7L186.8 280zM512 32H64c-35.35 0-64 28.65-64 64v320c0 35.35 28.65 64 64 64h448c35.35 0 64-28.65 64-64v-320C576 60.65 547.3 32 512 32zM290.7 349.5C287.3 351.2 283.6 352 280 352c-8.812 0-17.28-4.859-21.5-13.27L249.2 320H166.8l-9.367 18.73c-5.906 11.86-20.31 16.7-32.19 10.73c-11.88-5.938-16.69-20.34-10.75-32.2l72-144c8.125-16.25 34.81-16.25 42.94 0l72 144C307.4 329.1 302.6 343.5 290.7 349.5zM464 328c0 13.25-10.75 24-24 24c-6.707 0-12.74-2.781-17.1-7.221C413.5 349.3 403.1 352 392 352C352.2 352 320 319.8 320 280s32.24-72 72-72c8.461 0 16.46 1.727 24 4.408V184c0-13.25 10.75-23.1 24-23.1S464 170.8 464 184V328zM392 256c-13.23 0-24 10.77-24 24s10.77 24 24 24C405.2 304 416 293.2 416 280S405.2 256 392 256z"/></svg>
